!!!!SEGMENT: pl-kk--kk-i-493--001_anonim--o-sacrum-convivium.krn
!!!cenid: 17xx:1835
!!!COM: Anonim
!!!COM-rismid: pe30004985
!!!CDT:
!!!CNT:
!!!OTL: O sacrum convivium
!!!PDT:
!!!AGN:
!!!SMS-siglum: PL-Kk
!!!SMS-shelfmark: Kk.I.493
!!!SMS-shelfwork: 001 W
!!!SMS-variant:
!!!SMS-altvar:
!!!NIFC-rismid: 1001136765
!!!URL-scan: http://repozytorium.nifc.pl/skany/pl-kk-nut--i-493
!!!ONB-nifc:
**kern	**text	**kern	**text	**kern	**text	**kern	**text
*part4	*part4	*part3	*part3	*part2	*part2	*part1	*part1
*staff4	*staff4	*staff3	*staff3	*staff2	*staff2	*staff1	*staff1
*Iempty	*	*Itenor	*	*Ialto	*	*Isoprn	*
*I"Baſso	*	*I"Tenore	*	*I"Alto	*	*I"Soprano	*
*I'B	*	*I'T	*	*I'A	*	*I'S	*
*group1	*	*group1	*	*group1	*	*group1	*
*clefF4	*	*clefC4	*	*clefC3	*	*clefC1	*
*k[]	*	*k[]	*	*k[]	*	*k[]	*
*C:	*	*C:	*	*C:	*	*C:	*
*M2/2	*	*M2/2	*	*M2/2	*	*M2/2	*
*met(c|)	*	*met(c|)	*	*met(c|)	*	*met(c|)	*
=1	=1	=1	=1	=1	=1	=1	=1
*2\right	*	*2\right	*	*2\right	*	*2\right	*
!LO:TX:t=P:problem:oznaczenie metryczne alla breve z ogonkiem	!	!LO:TX:t=P:problem:oznaczenie metryczne alla breve z ogonkiem	!	!LO:TX:t=P:problem:oznaczenie metryczne alla breve z ogonkiem	!	!LO:TX:t=P:problem:oznaczenie metryczne alla breve z ogonkiem	!
!LO:TX:a:t=Antiph 1.	!	!LO:TX:a:t=Antiph 1.	!	!LO:TX:a:t=Antiph 1.	!	!LO:TX:a:t=Antiph 1	!
1C	O	1G	O	1e	O	1cc	O
=2	=2	=2	=2	=2	=2	=2	=2
1D	sa-	1G	Sa-	1f	sa-	1b	Sa-
=3	=3	=3	=3	=3	=3	=3	=3
2E\	-crum	2G/	-crum	2g\	-crum	2cc\	-crum
2F\	con-	2A/	con-	2f\	con-	2cc\	con-
!	!	!LO:LB:g=original	!	!LO:LB:g=original	!	!	!
=4	=4	=4	=4	=4	=4	=4	=4
2.D\	-vi-	2.B\	-vi-	2f\	-vi-	2.ff\	-vi-
.	.	.	.	2g\	-vi-	.	.
4D\	-vi-	4B\	-vi-	.	.	4ff\	-vi-
!LO:LB:g=original	!	!	!	!	!	!	!
=5	=5	=5	=5	=5	=5	=5	=5
2C/	-um	2c\	-um	2g\	-um	2ee\	-um
[2C/	in	[<2c\	in	[<2g\	in	[<2ee\	in
!	!	!	!	!	!	!LO:LB:g=original	!
=6	=6	=6	=6	=6	=6	=6	=6
2C/]	.	2c\]	.	2g\]	.	2ee\]	.
2G\	quo	2B\	quo	2g\	quo	2dd\	quo
=7	=7	=7	=7	=7	=7	=7	=7
2A\	Chri-	2A\	Chri-	2e\	Chri-	2cc\	Chri-
2F#X\	-stus	2A\	-stus	2d\	-stus	2dd\	-stus
=8	=8	=8	=8	=8	=8	=8	=8
2.G\	su-	2G/	su-	2d\	su-	2.b\	su-
.	.	2B\	-mi-	2g\	-mi-	.	.
4G\	-mi-	.	.	.	.	4b\	-mi-
!	!	!LO:LB:g=original	!	!LO:LB:g=original	!	!	!
=9	=9	=9	=9	=9	=9	=9	=9
!	!	!LO:SIC:s=2A:v	!	!	!	!	!
2D\	-tur	2G/	-tur	2f#X\	-tur	2a\	-tur
2D\	re-	2B\	re-	2f#\	re-	2a\	re-
!LO:LB:g=original	!	!	!	!	!	!	!
=10	=10	=10	=10	=10	=10	=10	=10
!	!	!LO:SIC:l:s=-co-:v	!	!	!	!	!
!LO:SIC:l:s=-co-:v	!	!LO:TX:t=P:problem:skreślony takt przed t.10	!	!LO:SIC:s=2.f#:v	!	!	!
2.D#X\	-coe-	2.c\	-coe-	2.f\	-co-	2.a\	-co-
!	!	!	!	!LO:SIC:s=4f#:v	!	!	!
4D#\	-li-	4c\	-li-	4f\	-li-	4a\	-li-
=11	=11	=11	=11	=11	=11	=11	=11
2E\	-tur	2B\	-tur	2e\	-tur	2g\	-tur
2C/	me-	2A\	me-	2e\	me-	2a\	me-
!	!	!	!	!	!	!LO:LB:g=original	!
=12	=12	=12	=12	=12	=12	=12	=12
[1BB	-mo-	[<1F#X	-mo-	2e\	-mo-	[<1b	-mo-
.	.	.	.	4d#X\	.	.	.
.	.	.	.	4c#X\	.	.	.
!	!	!LO:LB:g=original	!	!LO:LB:g=original	!	!	!
=13	=13	=13	=13	=13	=13	=13	=13
2BB/]	.	2F#/]	.	2d#X\	.	2b\]	.
!	!	!LO:TX:t=P:problem:brak ♯ przy nucie	!	!	!	!	!
2BB/	-ri-	2F#X/	-ri-	2d#\	-ri-	2a\	-ri-
=14	=14	=14	=14	=14	=14	=14	=14
!LO:SIC:l:s=-a:v	!	!	!	!	!	!	!
2E\	-am	2E/	-a	2e\	-a	2g\	-a
[<2E\	pas-	[<2B\	pas-	[<2e\	pas-	[<2g\	pas-
!LO:LB:g=original	!	!	!	!	!	!	!
=15	=15	=15	=15	=15	=15	=15	=15
2E\]	.	2B\]	.	2e\]	.	2g\]	.
2D\	-si-	2B\	-si-	2e\	-si-	2g\	-si-
=16	=16	=16	=16	=16	=16	=16	=16
2C/	-o-	2c\	-o-	2f#X\	-o-	2a\	-o-
2BB/	-nis	2d\	-nis	2g\	-nis	2b\	-nis
=17	=17	=17	=17	=17	=17	=17	=17
1AA	e-	2e\	e-	2g\	e-	1cc	e-
.	.	2d\	.	2f#X\	.	.	.
!	!	!LO:LB:g=original	!	!LO:LB:g=original	!	!LO:LB:g=original	!
=18	=18	=18	=18	=18	=18	=18	=18
2GG/	-jus.	2d\	-jus	2g\	-jus	2b\	-jus
2r	.	2r	.	2r	.	[<2dd\	mens
=19	=19	=19	=19	=19	=19	=19	=19
!LO:TX:a:t=2	!	!LO:TX:a:t=i:v	!	!	!	!	!
0r	.	1r	.	2r	.	2dd\]	.
!	!	!	!	!	!	!LO:SIC:l:s=im-:v	!
.	.	.	.	[<2g\	mens	2b\	in-
=20	=20	=20	=20	=20	=20	=20	=20
.	.	2r	.	2g\]	.	1ee	-ple-
!	!	!	!	!LO:SIC:l:s=im-:v	!	!	!
.	.	[<2c\	mens	2e\	in-	.	.
=21	=21	=21	=21	=21	=21	=21	=21
!LO:N:vis=2	!	!	!	!LO:SIC:l:s=-ple-:v	!	!	!
4r	.	2c\]	.	1a	-plec-	1cc	-tur
!LO:LB:g=original	!	!	!	!	!	!	!
!LO:N:vis=2	!	!	!	!	!	!	!
4r	.	.	.	.	.	.	.
!	!	!LO:SIC:l:s=im-:v	!	!	!	!	!
[<2F\	mens	2A\	in-	.	.	.	.
=22	=22	=22	=22	=22	=22	=22	=22
!	!	!LO:SIC:l:s=-ple-:v	!	!	!	!	!
2F\]	.	1d	-plec-	1fn	-tur	2.ff\	gra-
!LO:SIC:l:s=im-:v	!	!	!	!	!	!	!
2D\	in-	.	.	.	.	.	.
.	.	.	.	.	.	4ee\	-ti-
!	!	!LO:LB:g=original	!	!LO:LB:g=original	!	!	!
=23	=23	=23	=23	=23	=23	=23	=23
!LO:SIC:l:s=-ple-:v	!	!	!	!	!	!	!
1G	-plec-	1B	-tur	2.b\	gra-	2dd\	-a
.	.	.	.	.	.	2r	.
.	.	.	.	4a\	-ti-	.	.
!	!	!	!	!	!	!LO:LB:g=original	!
=24	=24	=24	=24	=24	=24	=24	=24
1E	-tur	2.e\	gra-	2g\	-a	2r	.
.	.	.	.	2r	.	[<2gg\	et
.	.	4d\	-ti-	.	.	.	.
=25	=25	=25	=25	=25	=25	=25	=25
2.A\	gra-	2c\	-a	2.e\	et	2gg\]	.
.	.	2r	.	.	.	2cc#X\	fu-
4G\	-ti-	.	.	4e\	fu-	.	.
=26	=26	=26	=26	=26	=26	=26	=26
2F\	-a	2r	.	[<1a	-tu-	1dd	-tu-
2r	.	[<2f\	et	.	.	.	.
!LO:LB:g=original	!	!	!	!	!	!	!
=27	=27	=27	=27	=27	=27	=27	=27
!	!	!	!	!	!	!LO:SIC:l:s=-ra:v	!
2.D\	et	2f\]	.	2a\]	.	1ff	-rae
.	.	2B\	fu-	2g\	-ra	.	.
4D\	fu-	.	.	.	.	.	.
!	!	!LO:LB:g=original	!	!LO:LB:g=original	!	!	!
=28	=28	=28	=28	=281	=28	=28	=28
!	!	!	!	!LO:N:vis=2	!	!	!
2C/	-tu-	2c\	-tu-	[<1g	glo-	[<1ee	glo-
2E\	-ra	2c\	-ra	.	.	.	.
=29	=29	=29	=29	=29	=29	=29	=29
2.G\	glo-	(2c\	glo-	2g\]	.	2ee\]	.
.	.	4B\)	.	2g\	-ri-	(4dd\	-ri-
4G\	-ri-	4A\	-ri-	.	.	4cc\)	.
!	!	!	!	!	!	!LO:LB:g=original	!
=30	=30	=30	=30	=30	=30	=30	=30
1G	-a	1B	-a	1g	-a	2dd\	-a
.	.	.	.	.	.	[<2ee\	no-
=31	=31	=31	=31	=31	=31	=31	=31
2.G#X\	no-	2.B\	no-	2.e\	no-	2ee\]	.
.	.	.	.	.	.	2dd\	-bis
4G#\	-bis	4B\	-bis	4e\	-bis	.	.
!LO:LB:g=original	!	!	!	!	!	!	!
=32	=32	=32	=32	=32	=32	=32	=32
2A\	pi-	2c\	pi-	2e\	pi-	2cc\	pi-
2Gn\	-gnus	2B\	-gnus	2e\	-gnus	2cc\	-gnus
!	!	!LO:LB:g=original	!	!LO:LB:g=original	!	!	!
=33	=33	=33	=33	=33	=33	=33	=33
2F\	da-	2A/	da-	2f\	da-	2cc\	da-
2E\	-tur	2G/	-tur	2g\	-tur	2cc\	-tur
=34	=34	=34	=34	=34	=34	=34	=34
2D/	no-	2G/	no-	2f\	no-	2b\	no-
2C/	-bis	2G/	-bis	2e\	-bis	2cc\	-bis
!	!	!	!	!	!	!LO:LB:g=original	!
=35	=35	=35	=35	=35	=35	=35	=35
2BB/	pi-	2G/	pi-	2f\	pi-	2dd\	pi-
2C/	-gnus	2G/	-gnus	2e\	-gnus	2cc\	-gnus
=36	=36	=36	=36	=36	=36	=36	=36
[1GG	da-	[1G	da-	[<1d	da-	2cc\	da-
.	.	.	.	.	.	4b\	.
.	.	.	.	.	.	4a\	.
!LO:LB:g=original	!	!	!	!	!	!	!
=37	=37	=37	=37	=37	=37	=37	=37
1GG]	.	2G/]	.	1d]	.	1b	.
.	.	2F/	.	.	.	.	.
!	!	!LO:LB:g=original	!	!LO:LB:g=original	!	!	!
=38	=38	=38	=38	=38	=38	=38	=38
2C/	-tur	2E/	-tur	2c\	-tur	2cc\	-tur
[2C/	no-	[2G/	no-	[<2e\	no-	[<2cc\	no-
=39	=39	=39	=39	=39	=39	=39	=39
2C/]	.	2G/]	.	2e\]	.	2cc\]	.
2E\	-bis	2c\	-bis	2g\	-bis	2b-X\	-bis
!	!	!	!	!	!	!LO:LB:g=original	!
=40	=40	=40	=40	=40	=40	=40	=40
2F\	pi-	2c\	pi-	2f\	pi-	2a\	pi-
2C/	-gnus	2c\	-gnus	2e\	-gnus	2g\	-gnus
=41	=41	=41	=41	=41	=41	=41	=41
!LO:N:vis=0	!	!LO:N:vis=0	!	!LO:N:vis=0	!	!LO:N:vis=0	!
1F	da-	1c	da-	1f	da-	1a	da-
!LO:LB:g=original	!	!	!	!	!	!	!
=42	=42	=42	=42	=42	=42	=42	=42
!LO:N:vis=0	!	!LO:N:vis=0	!	!LO:N:vis=0	!	!LO:N:vis=0	!
1C	-tur.	1c	-tur.	1e	-tur.	1g	-tur.
==	==	==	==	==	==	==	==
*-	*-	*-	*-	*-	*-	*-	*-
!!!system-decoration: [(g1)]
!!!RDF**kern: >= above
!!!RDF**kern: <= below
!!!AIN: 1 alto 1 empty 1 soprn 1 tenor
!!!ENC: Anna Matuszewska
!!!END: 2021-01-02
!!!ENC: Andrzej Kubiczek
!!!END: 2020-12-30
